X: 1453
T: Frank Forde's Mazurka
B: australian traditional tunes wiki
M:3/4
L:1/8
R: Mazurka
Q: 1/4=100
K:G
V:1 
G>A|:"G"B2B2c>d|"C"e2e2E>F|"G"G2A>G F>E|"D7"D2D2(d>c)|"G"B2B2c>d|"C"e2e2c>B|"D7"A>B c>d ((3cBA)|"G"G2G2d>c:|
|:"G"B2d>c B>G|"D7"A2F2G>F|"C"E2G>A ((3Bcd)|"C"e2g2 ((3f/g/f/e)|"G"d2B2A>B|"C"c>d e>f g>e|"D7"A>B c>d ((3cBA)|1"G"G2G2d>c:|2"G"G6||
% abcbook-tune_id 6342d53ab209b4dc776edaa2


% abcbook-boost 0
% abcbook-tablature 
% abcbook-transpose 
% abcbook-lastupdated 1665324365806
% abcbook-soundfonts 
% abcbook-repeats 1
% NFF Book 2013

